X: 21184
T: Katie McGoohan's
R: hornpipe
M: 4/4
K: Gmajor
Bc|dBGB cAFA|dBGB d2cB|ABcd edcB|(3ABA (3GFE D2Bc|
dBGB cAFA|dBGB d2cB|ABcd edef|g2b2 g2:|
dg|bdbd acac|gBgB d2cB|ABcd edcB|(3ABA (3GFE D2dg|
bdbd acac|gBgB d2cB|ABcd edef|g2 b2 g2:|

